usr/share/icons/biglinux-icons-material/scalable/devices/uninterruptible-power-supply.svg

<?xml version="1.0" encoding="UTF-8" standalone="no"?>
<svg
   width="24"
   height="24"
   version="1"
   id="svg4"
   sodipodi:docname="uninterruptible-power-supply.svg"
   inkscape:version="1.3 (0e150ed6c4, 2023-07-21)"
   inkscape:export-filename="../../../../../../../../../Imagens/Big Icons/uninterruptible-power-supply.pdf"
   inkscape:export-xdpi="96"
   inkscape:export-ydpi="96"
   xml:space="preserve"
   xmlns:inkscape="http://www.inkscape.org/namespaces/inkscape"
   xmlns:sodipodi="http://sodipodi.sourceforge.net/DTD/sodipodi-0.dtd"
   xmlns="http://www.w3.org/2000/svg"
   xmlns:svg="http://www.w3.org/2000/svg"><defs
     id="defs4"><radialGradient
       fx="0"
       fy="0"
       cx="0"
       cy="0"
       r="1"
       gradientUnits="userSpaceOnUse"
       gradientTransform="matrix(0,16.500002,-16.500002,0,8.999659,0.749973)"
       spreadMethod="pad"
       id="radialGradient40514-1"><stop
         style="stop-opacity:1;stop-color:#a4a4a4"
         offset="0"
         id="stop40510-7" /><stop
         style="stop-opacity:1;stop-color:#626262"
         offset="1"
         id="stop40512-2" /></radialGradient><radialGradient
       fx="0"
       fy="0"
       cx="0"
       cy="0"
       r="1"
       gradientUnits="userSpaceOnUse"
       gradientTransform="matrix(0,16.500002,-16.500002,0,8.99932,0.749947)"
       spreadMethod="pad"
       id="radialGradient2"><stop
         style="stop-opacity:1;stop-color:#a4a4a4"
         offset="0"
         id="stop1" /><stop
         style="stop-opacity:1;stop-color:#626262"
         offset="1"
         id="stop2" /></radialGradient><clipPath
       clipPathUnits="userSpaceOnUse"
       id="clipPath5"><path
         d="M 0,0 H 19 V 19 H 0 Z"
         id="path5" /></clipPath><clipPath
       clipPathUnits="userSpaceOnUse"
       id="clipPath7"><path
         d="M 0,0 H 19 V 19 H 0 Z"
         id="path7" /></clipPath><clipPath
       clipPathUnits="userSpaceOnUse"
       id="clipPath9"><path
         d="M 0,0 H 19 V 19 H 0 Z"
         id="path9" /></clipPath><radialGradient
       fx="0"
       fy="0"
       cx="0"
       cy="0"
       r="1"
       gradientUnits="userSpaceOnUse"
       gradientTransform="matrix(0,22.000002,-22.000002,0,45.999093,0.99992931)"
       spreadMethod="pad"
       id="radialGradient2-6"><stop
         style="stop-opacity:1;stop-color:#a4a4a4"
         offset="0"
         id="stop1-7" /><stop
         style="stop-opacity:1;stop-color:#626262"
         offset="1"
         id="stop2-5" /></radialGradient><clipPath
       clipPathUnits="userSpaceOnUse"
       id="clipPath5-3"><path
         d="M 0,0 H 19 V 19 H 0 Z"
         id="path5-5" /></clipPath><clipPath
       clipPathUnits="userSpaceOnUse"
       id="clipPath7-6"><path
         d="M 0,0 H 19 V 19 H 0 Z"
         id="path7-2" /></clipPath><clipPath
       clipPathUnits="userSpaceOnUse"
       id="clipPath9-9"><path
         d="M 0,0 H 19 V 19 H 0 Z"
         id="path9-1" /></clipPath></defs><sodipodi:namedview
     id="namedview4"
     pagecolor="#ffffff"
     bordercolor="#000000"
     borderopacity="0.25"
     inkscape:showpageshadow="2"
     inkscape:pageopacity="0.0"
     inkscape:pagecheckerboard="0"
     inkscape:deskcolor="#d1d1d1"
     inkscape:zoom="9.6875"
     inkscape:cx="32"
     inkscape:cy="31.948387"
     inkscape:window-width="2560"
     inkscape:window-height="998"
     inkscape:window-x="0"
     inkscape:window-y="0"
     inkscape:window-maximized="1"
     inkscape:current-layer="svg4"><inkscape:page
       x="0"
       y="0"
       width="24"
       height="24"
       id="page1"
       margin="0"
       bleed="0" /></sodipodi:namedview><g
     id="g1"
     inkscape:groupmode="layer"
     inkscape:label="1"
     transform="translate(34)" /><g
     id="g2"
     transform="translate(-34.000452,-3.5455915e-5)"><path
       id="path2"
       d="m 43.593333,1.1146666 c 0.12,0 0.234667,-0.016 0.344,-0.046667 1.437333,-0.0946667 2.874667,-0.0893334 4.308,0.010667 1.301333,0.104 2.561333,0.3853334 3.781333,0.848 2.025333,0.8333333 3.410667,2.2813333 4.161333,4.3386666 0.421334,1.2399999 0.676,2.5159999 0.754667,3.8226668 0.104,1.646666 0.068,3.286666 -0.114667,4.928 -0.14,1.150666 -0.437333,2.254666 -0.896,3.317333 -0.849333,1.844 -2.229333,3.114666 -4.134666,3.812 -1.542667,0.521333 -3.130667,0.797333 -4.766667,0.824 -1.833333,0.09867 -3.650666,-0.04267 -5.452,-0.412 C 38.270667,21.822666 36.224,19.802666 35.453333,16.5 c -0.328,-1.484 -0.48,-2.989334 -0.448,-4.510667 -0.036,-1.62 0.134667,-3.2133332 0.516,-4.7866665 C 36.333333,4.1199999 38.292,2.2079999 41.396,1.4693333 42.12,1.292 42.854666,1.172 43.593333,1.1146666 Z"
       style="fill:url(#radialGradient2-6);fill-rule:evenodd;stroke:none;stroke-width:1.33333" /><path
       id="path3"
       d="M 52,18.286666 V 6.8599998 C 52,5.9066665 51.234666,5.1399999 50.286666,5.1399999 H 41.713333 C 40.765333,5.1399999 40,5.9066665 40,6.8599998 V 18.286666 C 40,19.234666 40.765333,20 41.713333,20 h 8.573333 C 51.234666,20 52,19.234666 52,18.286666 Z"
       style="fill:#4d4d4d;fill-opacity:1;fill-rule:nonzero;stroke:none;stroke-width:1.33333" /><path
       id="path4-3"
       d="M 42.573333,3.9999999 C 42.254666,3.9999999 42,4.2546666 42,4.5733332 V 13.14 c 0,2.22 1.786666,4 4,4 2.213333,0 4,-1.78 4,-4 V 4.5733332 C 50,4.2546666 49.745333,3.9999999 49.426666,3.9999999 Z"
       style="fill:#ededeb;fill-opacity:1;fill-rule:nonzero;stroke:none;stroke-width:1.33333" /><g
       opacity="0.5"
       id="g6"
       transform="translate(34)"><path
         d="m 10.285,9.855 c 0,0.711 -0.574,1.29 -1.285,1.29 -0.711,0 -1.285,-0.579 -1.285,-1.29 C 7.715,9.148 8.289,8.57 9,8.57 c 0.711,0 1.285,0.578 1.285,1.285 z"
         style="fill:#bebebc;fill-opacity:1;fill-rule:nonzero;stroke:none"
         transform="scale(1.3333333)"
         clip-path="url(#clipPath5-3)"
         id="path6" /></g><g
       opacity="0.5"
       id="g8"
       transform="translate(34)"><path
         d="M 9.645,7.07 C 9.645,7.426 9.355,7.715 9,7.715 8.645,7.715 8.355,7.426 8.355,7.07 8.355,6.715 8.645,6.43 9,6.43 c 0.355,0 0.645,0.285 0.645,0.64 z"
         style="fill:#d7d9d6;fill-opacity:1;fill-rule:nonzero;stroke:none"
         transform="scale(1.3333333)"
         clip-path="url(#clipPath7-6)"
         id="path8" /></g><g
       opacity="0.5"
       id="g10"
       transform="translate(34)"><path
         d="M 9.645,5.355 C 9.645,5.711 9.355,6 9,6 8.645,6 8.355,5.711 8.355,5.355 c 0,-0.351 0.29,-0.64 0.645,-0.64 0.355,0 0.645,0.289 0.645,0.64 z"
         style="fill:#d7d9d6;fill-opacity:1;fill-rule:nonzero;stroke:none"
         transform="scale(1.3333333)"
         clip-path="url(#clipPath9-9)"
         id="path10" /></g><path
       id="path11"
       d="m 47.14,13.14 c 0,0.636 -0.509334,1.146666 -1.14,1.146666 -0.630667,0 -1.14,-0.510666 -1.14,-1.146666 0,-0.629334 0.509333,-1.14 1.14,-1.14 0.630666,0 1.14,0.510666 1.14,1.14 z"
       style="fill:#ffffff;fill-opacity:1;fill-rule:nonzero;stroke:none;stroke-width:1.33333" /></g></svg>

<svg xmlns="http://www.w3.org/2000/svg" xml:space="preserve" width="24" height="24" version="1"><defs><clipPath id="b" clipPathUnits="userSpaceOnUse"><path d="M0 0h19v19H0Z"/></clipPath><clipPath id="c" clipPathUnits="userSpaceOnUse"><path d="M0 0h19v19H0Z"/></clipPath><clipPath id="d" clipPathUnits="userSpaceOnUse"><path d="M0 0h19v19H0Z"/></clipPath><radialGradient id="a" cx="0" cy="0" r="1" fx="0" fy="0" gradientTransform="matrix(0 22 -22 0 46 1)" gradientUnits="userSpaceOnUse" spreadMethod="pad"><stop offset="0" style="stop-opacity:1;stop-color:#a4a4a4"/><stop offset="1" style="stop-opacity:1;stop-color:#626262"/></radialGradient></defs><path d="M43.593 1.115c.12 0 .235-.016.344-.047a31.814 31.814 0 0 1 4.308.01 13.68 13.68 0 0 1 3.782.849c2.025.833 3.41 2.281 4.161 4.338.421 1.24.676 2.516.755 3.823a28.303 28.303 0 0 1-.115 4.928 11.968 11.968 0 0 1-.896 3.317c-.85 1.844-2.23 3.115-4.135 3.812-1.542.522-3.13.798-4.766.824a21.331 21.331 0 0 1-5.452-.412c-3.308-.734-5.355-2.754-6.126-6.057a18.991 18.991 0 0 1-.448-4.51c-.036-1.62.135-3.214.516-4.787.812-3.083 2.771-4.995 5.875-5.734a13.692 13.692 0 0 1 2.197-.354Z" style="fill:url(#a);fill-rule:evenodd;stroke:none;stroke-width:1.33333" transform="translate(-34)"/><path d="M52 18.287V6.86c0-.953-.765-1.72-1.713-1.72h-8.574c-.948 0-1.713.767-1.713 1.72v11.427c0 .948.765 1.713 1.713 1.713h8.574c.948 0 1.713-.765 1.713-1.713Z" style="fill:#4d4d4d;fill-opacity:1;fill-rule:nonzero;stroke:none;stroke-width:1.33333" transform="translate(-34)"/><path d="M42.573 4a.57.57 0 0 0-.573.573v8.567c0 2.22 1.787 4 4 4s4-1.78 4-4V4.573A.57.57 0 0 0 49.427 4Z" style="fill:#ededeb;fill-opacity:1;fill-rule:nonzero;stroke:none;stroke-width:1.33333" transform="translate(-34)"/><path d="M10.285 9.855c0 .711-.574 1.29-1.285 1.29A1.288 1.288 0 0 1 9 8.57c.711 0 1.285.578 1.285 1.285z" clip-path="url(#b)" opacity=".5" style="fill:#bebebc;fill-opacity:1;fill-rule:nonzero;stroke:none" transform="matrix(1.33333 0 0 1.33333 0 0)"/><path d="M9.645 7.07a.646.646 0 0 1-1.29 0c0-.355.29-.64.645-.64.355 0 .645.285.645.64z" clip-path="url(#c)" opacity=".5" style="fill:#d7d9d6;fill-opacity:1;fill-rule:nonzero;stroke:none" transform="matrix(1.33333 0 0 1.33333 0 0)"/><path d="M9.645 5.355a.646.646 0 0 1-1.29 0 .645.645 0 0 1 1.29 0z" clip-path="url(#d)" opacity=".5" style="fill:#d7d9d6;fill-opacity:1;fill-rule:nonzero;stroke:none" transform="matrix(1.33333 0 0 1.33333 0 0)"/><path d="M47.14 13.14a1.14 1.14 0 1 1-2.28 0 1.14 1.14 0 1 1 2.28 0z" style="fill:#fff;fill-opacity:1;fill-rule:nonzero;stroke:none;stroke-width:1.33333" transform="translate(-34)"/></svg>
